outputs/icons/image/rotate_left_round.svg

<svg xmlns="http://www.w3.org/2000/svg" width="1200" height="1200" fill="none"><g clip-path="url(#a)"><path fill="#000" d="M328.004 399.001c-23-23-62.5-19-78 9.5-14 25.5-25 51.5-33.5 79-9.5 31.499 15.5 62.499 48 62.499h.5c21.5 0 41-14 47-35q9-29.999 24-58.499c11-18.5 7.5-42-8-57.5M265.504 650h-1c-32.5 0-57.5 31-48 62.5 8 27 19 53.5 33 79 15.5 28.5 55.5 33 78.5 10 15-15.5 19-38.5 8.5-57.5-10-18.5-18-38-24-58-6-22-25.5-36-47-36m142.5 301q38.25 21 79.5 33c31.001 9 62.001-16 62.001-48v-1.5c0-21.5-14-41-35-47-20.001-6-39.001-14-57.501-24-19-10.5-43-7-58 8.5l-1.5 1.5c-22.5 22.5-18 62 10.5 77.5m242.001-747.499v-33c0-44.5-54-67-85.5-35.5l-106.001 106.5c-20 20-20 52 0 71.5l106.501 104c31.5 31 85 8.5 85-36v-76.5c142 24 250 147 250 295.499 0 136.5-91 251-216 287.5-20.5 6-34 25.5-34 47v1c0 32.5 30.5 57 61.5 48 167-48 288.5-201.5 288.5-383.5 0-203.999-152.5-371.999-350-396.499"/></g><defs><clipPath id="a"><path fill="#fff" d="M0 0h1200v1200H0z"/></clipPath></defs></svg>

<svg width="1200" height="1200" viewBox="0 0 1200 1200" fill="none" xmlns="http://www.w3.org/2000/svg"><g clip-path="url(#clip0_238_2760)"><path d="M327.998 398.988C304.998 375.988 265.498 379.989 249.998 408.488C235.998 433.988 224.998 459.988 216.498 487.488C206.998 518.99 231.998 549.99 264.498 549.99H264.998C286.498 549.99 305.998 535.99 311.998 514.99C317.998 494.988 325.998 475.488 335.998 456.489C346.998 437.988 343.498 414.489 327.998 398.988ZM265.498 649.99H264.498C231.998 649.99 206.998 680.99 216.498 712.49C224.498 739.49 235.498 765.99 249.498 791.49C264.998 819.99 304.998 824.49 327.998 801.49C342.998 785.99 346.998 762.99 336.498 743.99C326.498 725.49 318.498 705.99 312.498 685.99C306.498 663.99 286.998 649.99 265.498 649.99ZM407.998 950.99C433.498 964.99 459.998 975.99 487.498 983.99C518.5 992.99 549.5 967.99 549.5 935.99V934.49C549.5 912.99 535.5 893.49 514.5 887.49C494.498 881.49 475.498 873.49 456.998 863.49C437.998 852.99 413.998 856.49 398.998 871.99L397.498 873.49C374.998 895.99 379.498 935.49 407.998 950.99ZM650 203.489V170.488C650 125.988 596 103.489 564.5 134.988L458.498 241.488C438.498 261.488 438.498 293.488 458.498 312.988L565 416.988C596.5 447.989 650 425.488 650 380.988V304.488C792 328.488 900 451.488 900 599.99C900 736.49 809 850.99 684 887.49C663.5 893.49 650 912.99 650 934.49V935.49C650 967.99 680.5 992.49 711.5 983.49C878.5 935.49 1000 781.99 1000 599.99C1000 395.988 847.5 227.989 650 203.489Z" fill="#1D1E23"/></g><defs><clipPath id="clip0_238_2760"><path width="24" fill="white" d="M0 0H1200V1200H0V0z"/></clipPath></defs></svg>
